modules/stripe_payment/images/icon.svg

<svg enable-background="new 0 0 48 24" viewBox="0 0 48 24" xmlns="http://www.w3.org/2000/svg"><path d="m24 19.1c0 2.7-2.2 4.9-4.9 4.9h-13.2c-2.7 0-4.9-2.2-4.9-4.9v-13.2c0-2.7 2.2-4.9 4.9-4.9h13.2c2.7 0 4.9 2.2 4.9 4.9z" fill="#939393"/><path d="m23 18.1c0 2.7-2.2 4.9-4.9 4.9h-13.2c-2.7 0-4.9-2.2-4.9-4.9v-13.2c0-2.7 2.2-4.9 4.9-4.9h13.2c2.7 0 4.9 2.2 4.9 4.9z" fill="#5a5a5a"/><path d="m4.9 22c-2.1 0-3.9-1.8-3.9-3.9v-13.2c0-2.1 1.8-3.9 3.9-3.9h13.2c2.1 0 3.9 1.8 3.9 3.9v13.2c0 2.2-1.8 3.9-3.9 3.9z" fill="#d6d6d6"/><path d="m15.1 15.8c0-.6-.2-1-.6-1.3-.4-.3-1.1-.6-2-1-2.1-.6-3.6-1.3-4.6-2.1s-1.5-1.8-1.5-3.2c0-1.4.6-2.5 1.8-3.3s2.7-1.3 4.5-1.3c1.8 0 3.3.5 4.4 1.4 1.2.9 1.7 2.1 1.7 3.6v.1h-3.7c0-.6-.2-1.2-.7-1.6-.4-.4-1-.6-1.8-.6-.8 0-1.4.2-1.8.5s-.6.8-.6 1.2c0 .5.2.9.7 1.1s1.3.6 2.5 1.1c1.9.6 3.2 1.2 4.2 2 .9.8 1.4 1.9 1.4 3.3 0 1.4-.6 2.6-1.7 3.4s-2.6 1.2-4.4 1.2c-1.9 0-3.5-.5-4.8-1.4s-2-2.3-2-4v-.1h3.7c0 .9.3 1.6.8 2 .5.4 1.3.6 2.3.6.8 0 1.4-.2 1.8-.5s.4-.6.4-1.1" fill="#5a5a5a"/><path d="m13.2 14.8c0-.6-.2-1-.6-1.3-.4-.3-1.1-.6-2-1-2.1-.6-3.6-1.3-4.6-2.1s-1.5-1.8-1.5-3.2c0-1.4.6-2.5 1.8-3.3s2.7-1.3 4.5-1.3c1.8 0 3.3.5 4.4 1.4s1.7 2.1 1.7 3.6v.1h-3.7c0-.6-.2-1.2-.7-1.6-.4-.4-1-.6-1.8-.6-.7 0-1.3.1-1.8.5-.4.3-.6.7-.6 1.2 0 .5.2.9.7 1.1s1.3.6 2.5 1.1c1.9.6 3.2 1.2 4.2 2 .9.8 1.4 1.9 1.4 3.3 0 1.4-.6 2.6-1.7 3.4s-2.6 1.2-4.4 1.2c-1.9 0-3.5-.5-4.8-1.4s-2-2.3-2-4v-.1h3.7c0 .9.3 1.6.8 2 .5.4 1.3.6 2.3.6.8 0 1.4-.2 1.8-.5s.4-.6.4-1.1" fill="#fff"/><path d="m48 19.1c0 2.7-2.2 4.9-4.9 4.9h-13.2c-2.7 0-4.9-2.2-4.9-4.9v-13.2c0-2.7 2.2-4.9 4.9-4.9h13.2c2.7 0 4.9 2.2 4.9 4.9z" fill="#939393"/><path d="m47 18.1c0 2.7-2.2 4.9-4.9 4.9h-13.2c-2.7 0-4.9-2.2-4.9-4.9v-13.2c0-2.7 2.2-4.9 4.9-4.9h13.2c2.7 0 4.9 2.2 4.9 4.9z" fill="#fff"/><path d="m28.9 22c-2.2 0-3.9-1.8-3.9-3.9v-13.2c0-2.1 1.8-3.9 3.9-3.9h13.2c2.1 0 3.9 1.8 3.9 3.9v13.2c0 2.2-1.8 3.9-3.9 3.9z" fill="#228ad0"/><path d="m39.1 15.8c0-.6-.2-1-.6-1.3-.4-.3-1.1-.6-2-1-2.1-.6-3.6-1.3-4.6-2.1-1-.7-1.5-1.8-1.5-3.2 0-1.4.6-2.5 1.8-3.3 1.2-.8 2.7-1.3 4.5-1.3 1.8 0 3.3.5 4.4 1.4 1.2.9 1.7 2.1 1.7 3.6v.1h-3.7c0-.6-.2-1.2-.7-1.6-.4-.4-1-.6-1.8-.6-.8 0-1.4.2-1.8.5s-.6.8-.6 1.2c0 .5.2.9.7 1.1s1.3.6 2.5 1.1c1.9.6 3.2 1.2 4.2 2 .9.8 1.4 1.9 1.4 3.3 0 1.4-.6 2.6-1.7 3.4-1.1.8-2.6 1.2-4.4 1.2-1.9 0-3.5-.5-4.8-1.4-1.4-.9-2-2.3-2-4v-.1h3.7c0 .9.3 1.6.8 2 .5.4 1.3.6 2.3.6.8 0 1.4-.2 1.8-.5.2-.2.4-.6.4-1.1" fill="#155580"/><path d="m37.2 14.8c0-.6-.2-1-.6-1.3-.4-.3-1.1-.6-2-1-2.1-.6-3.6-1.3-4.6-2.1s-1.5-1.8-1.5-3.2c0-1.4.6-2.5 1.8-3.3s2.7-1.3 4.5-1.3c1.8 0 3.3.5 4.4 1.4s1.7 2.1 1.7 3.6v.1h-3.7c0-.6-.2-1.2-.7-1.6-.4-.4-1-.6-1.8-.6-.8 0-1.4.2-1.8.5s-.6.8-.6 1.2c0 .5.2.9.7 1.1s1.3.6 2.5 1.1c1.9.6 3.2 1.2 4.2 2 .9.8 1.4 1.9 1.4 3.3 0 1.4-.6 2.6-1.7 3.4s-2.6 1.2-4.4 1.2c-1.9 0-3.5-.5-4.8-1.4-1.4-.9-2-2.3-2-4v-.1h3.7c0 .9.3 1.6.8 2 .5.4 1.3.6 2.3.6.8 0 1.4-.2 1.8-.5.2-.2.4-.6.4-1.1" fill="#fff"/></svg>

<svg xmlns="http://www.w3.org/2000/svg" viewBox="0 0 48 24" style="enable-background:new 0 0 48 24">
 <path d="M24,19.1c0,2.7-2.2,4.9-4.9,4.9H5.9C3.2,24,1,21.8,1,19.1V5.9C1,3.2,3.2,1,5.9,1h13.2
		C21.8,1,24,3.2,24,5.9V19.1z" style="fill:#939393"/>
 <path d="M23,18.1c0,2.7-2.2,4.9-4.9,4.9H4.9C2.2,23,0,20.8,0,18.1V4.9C0,2.2,2.2,0,4.9,0h13.2
		C20.8,0,23,2.2,23,4.9V18.1z" style="fill:#5a5a5a"/>
 <path d="M4.9,22C2.8,22,1,20.2,1,18.1V4.9C1,2.8,2.8,1,4.9,1h13.2C20.2,1,22,2.8,22,4.9v13.2c0,2.2-1.8,3.9-3.9,3.9
		H4.9z" style="fill:#d6d6d6"/>
 <path d="m15.1 15.8c0-.6-.2-1-.6-1.3-.4-.3-1.1-.6-2-1-2.1-.6-3.6-1.3-4.6-2.1s-1.5-1.8-1.5-3.2c0-1.4.6-2.5 1.8-3.3s2.7-1.3 4.5-1.3c1.8 0 3.3.5 4.4 1.4 1.2.9 1.7 2.1 1.7 3.6v.1h-3.7c0-.6-.2-1.2-.7-1.6-.4-.4-1-.6-1.8-.6-.8 0-1.4.2-1.8.5s-.6.8-.6 1.2c0 .5.2.9.7 1.1s1.3.6 2.5 1.1c1.9.6 3.2 1.2 4.2 2 .9.8 1.4 1.9 1.4 3.3 0 1.4-.6 2.6-1.7 3.4s-2.6 1.2-4.4 1.2c-1.9 0-3.5-.5-4.8-1.4s-2-2.3-2-4v-.1h3.7c0 .9.3 1.6.8 2 .5.4 1.3.6 2.3.6.8 0 1.4-.2 1.8-.5s.4-.6.4-1.1" style="fill:#5a5a5a"/>
 <path d="m13.2 14.8c0-.6-.2-1-.6-1.3-.4-.3-1.1-.6-2-1-2.1-.6-3.6-1.3-4.6-2.1s-1.5-1.8-1.5-3.2c0-1.4.6-2.5 1.8-3.3s2.7-1.3 4.5-1.3c1.8 0 3.3.5 4.4 1.4s1.7 2.1 1.7 3.6v.1h-3.7c0-.6-.2-1.2-.7-1.6-.4-.4-1-.6-1.8-.6-.7 0-1.3.1-1.8.5-.4.3-.6.7-.6 1.2 0 .5.2.9.7 1.1s1.3.6 2.5 1.1c1.9.6 3.2 1.2 4.2 2 .9.8 1.4 1.9 1.4 3.3 0 1.4-.6 2.6-1.7 3.4s-2.6 1.2-4.4 1.2c-1.9 0-3.5-.5-4.8-1.4s-2-2.3-2-4v-.1h3.7c0 .9.3 1.6.8 2 .5.4 1.3.6 2.3.6.8 0 1.4-.2 1.8-.5s.4-.6.4-1.1" style="fill:#fff"/>
 <path d="M48,19.1c0,2.7-2.2,4.9-4.9,4.9H29.9c-2.7,0-4.9-2.2-4.9-4.9V5.9C25,3.2,27.2,1,29.9,1
		h13.2C45.8,1,48,3.2,48,5.9V19.1z" style="fill:#939393"/>
 <path d="M47,18.1c0,2.7-2.2,4.9-4.9,4.9H28.9c-2.7,0-4.9-2.2-4.9-4.9V4.9C24,2.2,26.2,0,28.9,0
		h13.2C44.8,0,47,2.2,47,4.9V18.1z" style="fill:#fff"/>
 <path d="M28.9,22c-2.2,0-3.9-1.8-3.9-3.9V4.9C25,2.8,26.8,1,28.9,1h13.2C44.2,1,46,2.8,46,4.9v13.2
		c0,2.2-1.8,3.9-3.9,3.9H28.9z" style="fill:#228ad0"/>
 <path d="m39.1 15.8c0-.6-.2-1-.6-1.3-.4-.3-1.1-.6-2-1-2.1-.6-3.6-1.3-4.6-2.1-1-.7-1.5-1.8-1.5-3.2 0-1.4.6-2.5 1.8-3.3 1.2-.8 2.7-1.3 4.5-1.3 1.8 0 3.3.5 4.4 1.4 1.2.9 1.7 2.1 1.7 3.6v.1h-3.7c0-.6-.2-1.2-.7-1.6-.4-.4-1-.6-1.8-.6-.8 0-1.4.2-1.8.5s-.6.8-.6 1.2c0 .5.2.9.7 1.1s1.3.6 2.5 1.1c1.9.6 3.2 1.2 4.2 2 .9.8 1.4 1.9 1.4 3.3 0 1.4-.6 2.6-1.7 3.4-1.1.8-2.6 1.2-4.4 1.2-1.9 0-3.5-.5-4.8-1.4-1.4-.9-2-2.3-2-4v-.1h3.7c0 .9.3 1.6.8 2 .5.4 1.3.6 2.3.6.8 0 1.4-.2 1.8-.5.2-.2.4-.6.4-1.1" style="fill:#155580"/>
 <path d="m37.2 14.8c0-.6-.2-1-.6-1.3-.4-.3-1.1-.6-2-1-2.1-.6-3.6-1.3-4.6-2.1s-1.5-1.8-1.5-3.2c0-1.4.6-2.5 1.8-3.3s2.7-1.3 4.5-1.3c1.8 0 3.3.5 4.4 1.4s1.7 2.1 1.7 3.6v.1h-3.7c0-.6-.2-1.2-.7-1.6-.4-.4-1-.6-1.8-.6-.8 0-1.4.2-1.8.5s-.6.8-.6 1.2c0 .5.2.9.7 1.1s1.3.6 2.5 1.1c1.9.6 3.2 1.2 4.2 2 .9.8 1.4 1.9 1.4 3.3 0 1.4-.6 2.6-1.7 3.4s-2.6 1.2-4.4 1.2c-1.9 0-3.5-.5-4.8-1.4-1.4-.9-2-2.3-2-4v-.1h3.7c0 .9.3 1.6.8 2 .5.4 1.3.6 2.3.6.8 0 1.4-.2 1.8-.5.2-.2.4-.6.4-1.1" style="fill:#fff"/>
</svg>
